X:1
T:Acclaim, 88.85
T:Acclaim, 88.85
T:Traditional German melody
T:Public Domain Courtesy of the Cyber Hymnal™
C:Traditional German melody
Z:Public Domain
Z:Courtesy of the Cyber Hymnal™
%%score ( 1 2 ) ( 3 4 )
L:1/8
Q:1/4=100
M:3/4
K:G
V:1 treble 
V:2 treble 
V:3 bass 
V:4 bass 
V:1
 D>[CD] | [B,G]2 [B,G]2 [DF]>[DG] | [DA]2 [DA]2 [DG]>[DA] | [DB]2 [DB]2 [EA]>[EG] | %4
 [FA]2 [FA]2 [GB]>[Fc] | [Gd]2 [Gd]2 [DB]>[DG] | [CE]2 [CE]2 [EA]>[Cc] | [B,D]4 [CF]2 | [B,G]4 |] %9
V:2
 D3/2 x/ | x6 | x6 | x6 | x6 | x6 | x6 | x6 | x4 |] %9
V:3
 [D,F,]>[D,F,] | [G,,G,]2 [G,,G,]2 [D,A,]>[D,E,] | [D,F,]2 [D,F,]2 [B,,G,]>[D,F,] | %3
 G,2 G,2 [C,A,]>[^C,A,] | [D,D]2 [D,D]2 [G,D]>[A,D] | [B,D]2 [B,D]2 [G,D]>[B,,B,] | %6
 [C,G,]2 [C,G,]2 [C,A,]>[A,,E,] | [D,G,]4 [D,A,]2 | [G,,G,]4 |] %9
V:4
 x2 | x6 | x6 | G,2 G,2 x2 | x6 | x6 | x6 | x6 | x4 |] %9

